X: 40587
T: Tomnahurich
R: jig
M: 6/8
K: Amajor
|:e3 fec|ecB A3|B3 cBA|F2E EFA|
e3 fec|ecB A3|B3 cBA|F2E EFA:|
|:E2A FAA|EAA Bce|f2e ecA|cec BAF|
E2A FAA|EAA Bce|f2e ecA|B2AA2F:|

